!!!COA:	Josquin des Prez
!!!CDT:	~1450-1521/08/27
!!!OTL:	Credo La belle se siet
!!!AGN:	Mass section; Credo
!!!SCT:	NJE 13.3
!!!SCA:	New Josquin Edition 13.3
!!!voices:	4
**kern	**kern	**kern	**kern
*staff4	*staff3	*staff2	*staff1
*Ivox	*Ivox	*Ivox	*Ivox
*I"Bassus	*I"Tenor	*I"Altus	*I"Superius
*I'B	*I'T	*I'A	*I'S
*>[A,B,C]	*>[A,B,C]	*>[A,B,C]	*>[A,B,C]
*>A	*>A	*>A	*>A
*clefF4	*clefGv2	*clefGv2	*clefG2
*k[b-]	*k[b-]	*k[b-]	*k[b-]
*M3/1	*M3/1	*M3/1	*M3/1
*met(O)	*met(O)	*met(O)	*met(O)
=1-	=1-	=1-	=1-
0F	0.r	0.r	1.f
.	.	.	4e/
.	.	.	4d/
1F	.	.	2c/
.	.	.	[2d/
=2	=2	=2	=2
1G	0.r	0.r	2d/]
.	.	.	2e/
2G\	.	.	2d/
2G\	.	.	2.g/
1G	.	.	.
.	.	.	4f/
.	.	.	4e/
.	.	.	4d/
=3	=3	=3	=3
0.A	0F	0.r	1c
.	.	.	2r
.	.	.	2f/
.	1F	.	2f/
.	.	.	2f/
=4	=4	=4	=4
0.r	1G	0.r	2e/
.	.	.	1d
.	2G/	.	.
.	2G/	.	2c/
.	1G	.	1B-
=5	=5	=5	=5
0.r	0A	0.r	2A/
.	.	.	2e/
.	.	.	2f/
.	.	.	2.a/
.	1A	.	.
.	.	.	4g/
.	.	.	4a/
.	.	.	8g/L
.	.	.	8f/J
=6	=6	=6	=6
2r	0c	0.r	2e/
2E\	.	.	2g/
2F\	.	.	2a/
2.A\	.	.	2.cc\
.	1c	.	.
4G\	.	.	4b-\
4A\	.	.	4cc\
8G\L	.	.	8b-/L
8F\J	.	.	8a/J
=7	=7	=7	=7
2E\	0c	0.r	2g/
1F	.	.	2.a/
.	.	.	4f/
2C/	.	.	4g/
.	.	.	4a/
2G\	1d	.	2b-\
2F\	.	.	2a/
=8	=8	=8	=8
1G	1B-	0.r	2.d/
.	.	.	4e/
2D\	0A	.	2f/
2C/	.	.	1g
1D	.	.	.
.	.	.	2f#i/
=9	=9	=9	=9
2GG/	1G	0.r	0g
2C/	.	.	.
2BB-/	2G/	.	.
2.C/	2G/	.	.
.	2G/	.	1r
4BB-/	.	.	.
4C/	2G/	.	.
8BB-/L	.	.	.
8AA/J	.	.	.
=10	=10	=10	=10
2GG/	1B-	0.r	2r
2E-i\	.	.	2g/
2D\	2B-\	.	2f/
2.E-i\	2B-\	.	2.g/
.	1B-	.	.
4D\	.	.	4f/
4E-i\	.	.	4g/
8D/L	.	.	8f/L
8C/J	.	.	8e/J
=11	=11	=11	=11
4BB-/	1B-	0.r	1d
4C/	.	.	.
4D\	.	.	.
4E\	.	.	.
2F\	2A/	.	2c/
2BB-/	2.B-\	.	2.d/
1E-i	.	.	.
.	4A/	.	4c/
.	4B-\	.	2g/
.	8A/L	.	.
.	8G/J	.	.
=12	=12	=12	=12
2D\	2F/	0.r	4a/
.	.	.	4f/
2C/	2E/	.	2.g/
1D	1F	.	.
.	.	.	4f/
.	.	.	1f
1C	1G	.	.
.	.	.	2e/
=13	=13	=13	=13
2FF/	1F	[0.F	1f
2BB-/	.	.	.
2AA/	1r	.	2c/
2.BB-/	.	.	2.d/
.	1BB-	.	.
4AA/	.	.	4c/
4BB-/	.	.	4d/
8AA/L	.	.	8c/L
8GG/J	.	.	8B-/J
=14	=14	=14	=14
1FF	2C/	0.F]	1A
.	2.D/	.	.
1r	.	.	2A/
.	4C/	.	.
.	4D/	.	2A/
.	8C/L	.	.
.	8BB-/J	.	.
1FF	2AA/	.	1c
.	2A/	.	.
=15	=15	=15	=15
1.BB-	2.B-\	0.F	1d
.	4c\	.	.
.	2d\	.	1.f
2C/	2c\	.	.
1D	2A/	.	.
.	2B-\	.	4e/
.	.	.	4d/
=16	=16	=16	=16
0C	0c	0G	2e/
.	.	.	2e/
.	.	.	2e/
.	.	.	2.g/
1C	2r	1G	.
.	.	.	4f/
.	[2c\	.	4e/
.	.	.	4d/
=17	=17	=17	=17
2r	4c\]	[0.A	1c
.	4B-\	.	.
2.F\	4A/	.	.
.	4G/	.	.
.	2F/	.	2r
4E\	.	.	.
2D\	2.A/	.	2f/
2C/	.	.	2e/
.	4G/	.	.
2D\	2F/	.	[2d/
=18	=18	=18	=18
1AA	1E	0A]	4d/]
.	.	.	8c#i/L
.	.	.	8Bni/J
.	.	.	2c#i/
2.F\	2D/	.	2.d/
.	1F	.	.
4E\	.	.	4cni/
2D\	.	1r	2B-i/
2C/	2E/	.	[2A/
=19	=19	=19	=19
2F\	2F/	[0.c	4A/]
.	.	.	8G/L
.	.	.	8F/J
2E\	2C/	.	2G/
1F	2r	.	1A
.	2F/	.	.
1C	1G	.	1r
=20	=20	=20	=20
1FF	2.A/	0c]	2r
.	.	.	2a/
.	8G/L	.	.
.	8F/J	.	.
1r	2E/	.	2g/
.	2A/	.	2a/
1r	2G/	1d	2b-\
.	2F/	.	[2a/
=21	=21	=21	=21
1r	1G	1B-	4a/]
.	.	.	8g/L
.	.	.	8f/J
.	.	.	2g/
1AA	2E/	0A	2a/
.	2c\	.	1e
2AA/	2c\	.	.
2AA/	[2c\	.	2e/
=22	=22	=22	=22
1C	4c\]	1G	2e/
.	4B-\	.	.
.	4.G/	.	2.g/
.	8A/	.	.
1GG	4B-\	2G/	.
.	2c\	.	4f/
.	.	2G/	2d/
.	4Bni\	.	.
2.C/	2c\	1G	2r
.	2C/	.	[2g/
4BB-/	.	.	.
=23	=23	=23	=23
2GG/	2D/	0G	4g/]
.	.	.	4f/
1C	2C/	.	2e/
.	2r	.	1d
2BB-/	2G/	.	.
2C/	2E/	1G	1c
4BB-/	2C/	.	.
4AA/	.	.	.
=24	=24	=24	=24
0GG	2.G/	0.B-	2r
.	.	.	1g
.	8F/L	.	.
.	8E/J	.	.
.	1D	.	.
.	.	.	2g/
1GG	2D/	.	2g/
.	2D/	.	[2b-\
=25	=25	=25	=25
1BB-	1D	0F	4b-\]
.	.	.	4a/
.	.	.	4f/
.	.	.	4g/
2AA/	2C/	.	2a/
2BB-/	1F	.	2f/
1GG	.	1B-	1g
.	2E/	.	.
=26	=26	=26	=26
1FF	2F/	1A	2.c/
.	1.c	.	.
.	.	.	4d/
1C	.	0G	4e/
.	.	.	8d/L
.	.	.	8e/J
.	.	.	1f
1C	[1c	.	.
.	.	.	2e/
=27	=27	=27	=27
0.FF	2c\]	0.F	2f/
.	4B-\	.	2r
.	4A/	.	.
.	1A	.	2c/
.	.	.	2d/
.	2r	.	2c/
.	2c\	.	2A/
=28	=28	=28	=28
0.r	2d\	0.r	2B-/
.	2c\	.	2A/
.	2A/	.	4r
.	.	.	2a/
.	2B-\	.	.
.	.	.	4g/
.	2A/	.	2a/
.	4r	.	2d/
.	[4d\	.	.
=29	=29	=29	=29
0.r	4d\]	0.r	2e/
.	4c\	.	.
.	2d\	.	2d/
.	2G/	.	4r
.	.	.	2g/
.	2A/	.	.
.	.	.	4f/
.	2G/	.	2g/
.	4r	.	2c/
.	[4c\	.	.
=30	=30	=30	=30
1r	4c\]	0.r	2d/
.	4B-\	.	.
.	2c\	.	2c/
1r	2F/	.	4r
.	.	.	2f/
.	2G/	.	.
.	.	.	4e/
2r	2F/	.	2f/
2F\	2c\	.	[2a/
=31	=31	=31	=31
2F\	2c\	0.r	2a/]
2C/	2c\	.	2.g/
2D\	2A/	.	.
.	.	.	4f/
2BB-/	2B-\	.	2.f/
2C/	1G	.	.
.	.	.	8e/L
.	.	.	8d/J
2C/	.	.	2e/
=32	=32	=32	=32
1FF	1F	0F	1f
1BB-	2r	.	2r
.	2BB-/	.	2.d/
1AA	1C	1F	.
.	.	.	4c/
.	.	.	2c/
=33	=33	=33	=33
2GG/	2D/	1G	2B-/
1C	2E-i/	.	2.e-i/
.	2C/	2G/	.
.	.	.	4d/
2BB-/	2D/	2G/	2.d/
1C	2.E-i/	1G	.
.	.	.	4c/
.	.	.	2c/
.	4C/	.	.
=34	=34	=34	=34
0FF	2.F/	0A	2r
.	.	.	1c
.	4E/	.	.
.	2C/	.	.
.	1.F	.	2d/
1r	.	1A	2c/
.	.	.	[2f/
=35	=35	=35	=35
1C	1G	0c	2f/]
.	.	.	2e/
1F	2r	.	2r
.	2F/	.	2.a/
1E	1G	1c	.
.	.	.	4g/
.	.	.	2g/
=36	=36	=36	=36
2D\	2A/	0d	2f/
1G	2B-\	.	2.b-\
.	2G/	.	.
.	.	.	4a/
2F\	2A/	.	2.a/
1G	2.B-\	1d	.
.	.	.	4g/
.	.	.	[2g/
.	4G/	.	.
=37	=37	=37	=37
1C	2G/	1c	4g/]
.	.	.	2e/
.	2c\	.	.
.	.	.	8d/L
.	.	.	8c/J
2r	2B-\	2G/	2e/
2GG/	2G/	2B-\	2.d/
2AA/	2r	1A	.
.	.	.	4c/
2FF/	[2c\	.	[2f/
=38	=38	=38	=38
0C	1c]	0G	4f/]
.	.	.	8e/L
.	.	.	8d/J
.	.	.	2e/
.	1c	.	2r
.	.	.	2e/
1C	2.c\	1G	2e/
.	.	.	[2e/
.	4B-\	.	.
=39	=39	=39	=39
2.C/	2A/	0c	4e/]
.	.	.	4f/
.	2G/	.	2.g/
4BB-/	.	.	.
2AA/	2C/	.	.
.	.	.	4f/
2FF/	2F/	.	2.a/
2GG/	2D/	1B-	.
.	.	.	4g/
2EE/	2E/	.	2g/
=40	=40	=40	=40
4FF/	2C/	1A	2a/
4GG/	.	.	.
4AA/	1c	.	4g/
4BB-/	.	.	4f/
2C/	.	2G/	2e/
2D\	2B-\	2F/	1f
1C	1c	1G	.
.	.	.	2e/
=41	=41	=41	=41
[0.FFl	0.A	[0.Fl	[0.fl
=42	=42	=42	=42
0.FF]	0.cl	0.F]	0.f]
!!LO:LB:i:g=z
=43||	=43||	=43||	=43||
*>B	*>B	*>B	*>B
*clefF4	*clefGv2	*clefGv2	*clefG2
*k[b-]	*k[b-]	*k[b-]	*k[b-]
*M3/1	*M3/1	*M3/1	*M3/1
*met(O)	*met(O)	*met(O)	*met(O)
!!section: Et incarnatus est
!!!OMD: Et incarnatus est
0.r	0.r	0G	0.r
.	.	1G	.
=44	=44	=44	=44
0C	0.r	0G	0.r
1C	.	1A	.
=45	=45	=45	=45
0C	0.r	1G	0.r
.	.	1E	.
1D	.	1F	.
=46	=46	=46	=46
1C	0.r	1.E	0.r
1AA	.	.	.
.	.	1A	.
1BB-	.	.	.
.	.	2G/	.
=47	=47	=47	=47
1AA	2.C/	1A	0c
.	4D/	.	.
1r	4E/	1r	.
.	4C/	.	.
.	1F	.	.
1r	.	1r	1c
.	2G/	.	.
=48	=48	=48	=48
0.r	2A/	0.r	0c
.	4F/	.	.
.	4G/	.	.
.	4A/	.	.
.	4B-\	.	.
.	1c	.	.
.	.	.	1d
.	2B-\	.	.
=49	=49	=49	=49
0.r	2A/	0.r	1c
.	2.c\	.	.
.	.	.	1A
.	4B-\	.	.
.	1A	.	.
.	.	.	1B-
.	2G/	.	.
=50	=50	=50	=50
0.r	1A	0c	2A/
.	.	.	4c/
.	.	.	4d/
.	2r	.	4e/
.	.	.	4c/
.	1F	.	1f
.	.	1c	.
.	2E/	.	2g/
=51	=51	=51	=51
0.r	2F/	0c	2a/
.	2.A/	.	4f/
.	.	.	4g/
.	.	.	4a/
.	4G/	.	4b-\
.	2E/	.	1cc
.	2F/	1d	.
.	2G/	.	2b-\
=52	=52	=52	=52
0.r	2r	1c	2a/
.	2C/	.	2.cc\
.	1F	1A	.
.	.	.	4b-\
.	.	.	1a
.	2D/	1B-	.
.	2E/	.	2g/
=53	=53	=53	=53
1r	1F	1A	2a/
.	.	.	4g/
.	.	.	4f/
2.C/	0c	1r	1e
4D\	.	.	.
4E\	.	1r	1r
4C/	.	.	.
[2F\	.	.	.
=54	=54	=54	=54
2F\]	1c	0.r	0.r
2E\	.	.	.
2F\	0c	.	.
2.A\	.	.	.
4G\	.	.	.
2E\	.	.	.
=55	=55	=55	=55
2F\	1d	0.r	0.r
2G\	.	.	.
2A\	1c	.	.
2.F\	.	.	.
.	1A	.	.
4E\	.	.	.
2C/	.	.	.
=56	=56	=56	=56
2D\	1B-	0.r	1r
2E\	.	.	.
1.F	1.A	.	2r
.	.	.	2c/
.	.	.	2d/
4E\	4G/	.	[2f/
4D\	4F/	.	.
=57	=57	=57	=57
1C	1G	0c	2f/]
.	.	.	2e/
1FF	2r	.	2f/
.	1F	.	1a
1r	.	1c	.
.	2E/	.	2g/
=58	=58	=58	=58
0F	2F/	1c	2.a/
.	2.A/	.	.
.	.	.	4b-\
.	.	2c\	1cc
.	4B-\	.	.
.	2c\	2c\	.
1F	2A/	1d	1f
.	2F/	.	.
=59	=59	=59	=59
1F	2.A/	1c	2r
.	.	.	2.cc\
.	4B-\	.	.
2F\	1c	1A	.
.	.	.	4b-\
2F\	.	.	1a
1G	2r	1B-	.
.	2G/	.	2g/
=60	=60	=60	=60
1F	1c	1A	2.a/
.	.	.	8g/L
.	.	.	8a/J
1D	2.d\	1r	2b-\
.	.	.	2.a/
.	4c\	.	.
1E	2B-\	1r	.
.	.	.	4g/
.	4A/	.	2g/
.	4G/	.	.
=61	=61	=61	=61
2D\	2A/	0.r	2f/
1G	2B-\	.	4e/
.	.	.	4d/
.	2G/	.	2e/
4F\	1c	.	2c/
4E\	.	.	.
1D	.	.	2.f/
.	2Bni\	.	.
.	.	.	4g/
=62	=62	=62	=62
1C	2c\	0c	1e
.	2G/	.	.
0F	0A	.	2r
.	.	.	1a
.	.	1c	.
.	.	.	2f/
=63	=63	=63	=63
1E	1G	0c	1g
0F	1A	.	2f/
.	.	.	1a
.	1F	1d	.
.	.	.	4g/
.	.	.	4f/
=64	=64	=64	=64
1C	2G/	1c	1e
.	2.A/	.	.
0D	.	1A	2d/
.	4G/	.	.
.	4F/	.	1f
.	4E/	.	.
.	1F	1B-	.
.	.	.	4e/
.	.	.	4d/
=65	=65	=65	=65
1AA	1E	1A	1c
0D	0F	2A/	2r
.	.	1A	1f
.	.	2A/	4e/
.	.	.	4d/
=66	=66	=66	=66
0C	0.G	0c	1e
.	.	.	1.g
1E	.	1B-	.
.	.	.	2f/
=67	=67	=67	=67
1F	0.c	1A	1.f
0C	.	0G	.
.	.	.	4e/
.	.	.	4d/
.	.	.	1e
=68	=68	=68	=68
1D	2A/	0F	1f
.	1B-	.	.
2BB-/	.	.	2r
2C/	4A/	.	1c
.	4G/	.	.
1AA	1A	1F	.
.	.	.	4B-/
.	.	.	4A/
=69	=69	=69	=69
1GG	2r	1G	2.B-/
.	1D	.	.
.	.	.	4A/
1r	.	2B-\	2G/
.	2C/	2c\	1g
1D	2D/	1A	.
.	2d\	.	2f/
=70	=70	=70	=70
2E\	2B-\	0G	2.g/
2C/	2c\	.	.
.	.	.	4f/
2E\	2c\	.	2g/
2F\	1d	.	4f/
.	.	.	4e/
1G	.	[1B-	2d/
.	[2G/	.	[2g/
=71	=71	=71	=71
1GG	1G]	1B-]	4g/]
.	.	.	4f/
.	.	.	4e/
.	.	.	4d/
2AA/	2E/	0A	1c
2FF/	2F/	.	.
2AA/	2c\	.	2.f/
2BB-/	2d\	.	.
.	.	.	4g/
=72	=72	=72	=72
2.C/	2.c\	2.G/	2.e/
4D\	4B-\	4F/	4d/
2C/	2c\	2G/	4e/
.	.	.	4c/
2D\	2B-\	2F/	1f
1C	1c	1G	.
.	.	.	2e/
=73	=73	=73	=73
0.FF	2r	0.F	0f
.	2C/	.	.
.	2.C/	.	.
.	8BB-/L	.	.
.	8C/J	.	.
.	2D/	.	2r
.	2C/	.	2c/
=74	=74	=74	=74
0.r	2AA/	0.r	2.c/
.	2A/	.	.
.	.	.	8B-/L
.	.	.	8c/J
.	2G/	.	2d/
.	2c\	.	2c/
.	2.c\	.	4A/
.	.	.	4B-/
.	.	.	4c/
.	8B-\L	.	4d/
.	8c\J	.	.
=75	=75	=75	=75
0.r	2d\	0.r	2B-/
.	2c\	.	2A/
.	4A/	.	2r
.	4B-\	.	.
.	4c\	.	2e/
.	4d\	.	.
.	2c\	.	2.e/
.	2A/	.	.
.	.	.	8d/L
.	.	.	8e/J
=76	=76	=76	=76
2r	1A	0.r	2f/
2AA/	.	.	2e/
2.AA/	1r	.	4c/
.	.	.	4d/
.	.	.	4e/
8GG/L	.	.	4f/
8AA/J	.	.	.
2BB-/	2r	.	2d/
2AA/	2A/	.	2c/
=77	=77	=77	=77
4FF/	2.A/	0.r	1r
4GG/	.	.	.
4AA/	.	.	.
4BB-/	8G/L	.	.
.	8A/J	.	.
2GG/	2B-\	.	1r
2FF/	2A/	.	.
1r	4F/	.	2r
.	4G/	.	.
.	4A/	.	2g/
.	4B-\	.	.
=78	=78	=78	=78
1r	2G/	0.r	2.g/
.	2c\	.	.
.	.	.	8f/L
.	.	.	8g/J
2r	1c	.	2a/
2C/	.	.	2g/
2.C/	1r	.	4e/
.	.	.	4f/
.	.	.	4g/
8BB-/L	.	.	4a/
8C/J	.	.	.
=79	=79	=79	=79
2D\	2r	0.r	2f/
2C/	2c\	.	2e/
4AA/	2.c\	.	1r
4BB-/	.	.	.
4C/	.	.	.
4D\	8B-\L	.	.
.	8c\J	.	.
2BB-/	2d\	.	2r
2AA/	[2c\	.	2A/
=80	=80	=80	=80
1r	4c\]	0.r	2.A/
.	4B-\	.	.
.	2A/	.	.
.	.	.	8G/L
.	.	.	8A/J
1r	2G/	.	2B-/
.	2.A/	.	2A/
2r	.	.	4F/
.	4G/	.	4G/
2E\	2c\	.	4A/
.	.	.	4B-/
=81	=81	=81	=81
2.E\	2r	0.r	4G/
.	.	.	4F/
.	2G/	.	2.c/
8D\L	.	.	.
8E\J	.	.	.
2F\	2A/	.	.
.	.	.	4d/
2E\	2G/	.	4e/
.	.	.	4f/
4C/	1c	.	2g/
4D\	.	.	.
4E\	.	.	2c/
4F\	.	.	.
=82	=82	=82	=82
2D\	2B-\	0.r	2f/
2C/	2.c\	.	2e/
2r	.	.	2c/
.	4B-\	.	.
2FF/	4A/	.	2.a/
.	4G/	.	.
2GG/	1B-	.	.
.	.	.	4g/
2GG/	.	.	[2g/
=83	=83	=83	=83
2AA/	1A	1r	4g/]
.	.	.	4f/
2FF/	.	.	2f/
2C/	2G/	2r	2e/
2D\	2F/	2F/	2.f/
1C	2c\	2G/	.
.	.	.	8e/L
.	.	.	8d/J
.	[2c\	2G/	2e/
=84	=84	=84	=84
2r	4c\]	1A	2r
.	4B-\	.	.
2FF/	4A/	.	2.a/
.	4G/	.	.
2GG/	1B-	1r	.
.	.	.	4g/
2GG/	.	.	2.g/
2AA/	1A	1r	.
.	.	.	4f/
2FF/	.	.	2f/
=85	=85	=85	=85
2C/	2G/	2r	2e/
2D\	2F/	2F/	2.f/
1C	1c	2G/	.
.	.	.	8e/L
.	.	.	8d/J
.	.	2G/	2e/
1r	2r	1A	2r
.	2F/	.	2a/
=86	=86	=86	=86
2r	2E/	2.c\	2g/
2FF/	2F/	.	2.a/
.	.	4B-\	.
2GG/	1D	2G/	.
.	.	.	4g/
2GG/	.	2B-\	2.g/
2AA/	2C/	1A	.
.	.	.	4f/
2FF/	[2c\	.	2f/
=87	=87	=87	=87
2.C/	4c\]	2G/	2.e/
.	4B-\	.	.
.	2A/	2.c\	.
4D\	.	.	4f/
2E\	2G/	.	4g/
.	.	4B-\	4c/
2F\	1.c	2A/	2.f/
1C	.	1G	.
.	.	.	4e/
.	.	.	4e/
.	.	.	4d/
=88	=88	=88	=88
[0.FFl	1.A	[0.Fl	[0.fl
.	4G/	.	.
.	4F/	.	.
.	2A/	.	.
.	2B-\	.	.
=89	=89	=89	=89
0.FF]	0.cl	0.F]	0.f]
!!LO:LB:i:g=z
=90||	=90||	=90||	=90||
*>C	*>C	*>C	*>C
*clefF4	*clefGv2	*clefGv2	*clefG2
*k[b-]	*k[b-]	*k[b-]	*k[b-]
*M2/1	*M2/1	*M2/1	*M2/1
*met(O2)	*met(O2)	*met(O2)	*met(O2)
!!section: Et iterum
!!!OMD: Et iterum
!	!	!	!
0C	0G	[0c	0e
=91	=91	=91	=91
1AA	1A	0c]	1e
1AA	1A	.	1e
=92	=92	=92	=92
1FF	1A	0c	1f
1FF	1A	.	2f/
.	.	.	[2f/
=93	=93	=93	=93
1C	1G	0c	2f/]
.	.	.	4e/
.	.	.	4d/
1C	1G	.	1e
=94	=94	=94	=94
1BB-	1B-	[0d	1.f
1BB-	1B-	.	.
.	.	.	2f/
=95	=95	=95	=95
1BB-	1B-	0d]	1f
1BB-	1B-	.	1f
=96	=96	=96	=96
0C	1G	[0c	0e
.	2r	.	.
.	2G/	.	.
=97	=97	=97	=97
1F	2A/	0c_	2r
.	2F/	.	1a
1E	1G	.	.
.	.	.	[2g/
=98	=98	=98	=98
1F	1A	0c]	4g/]
.	.	.	4f/
.	.	.	1f
1C	1G	.	.
.	.	.	2e/
=99	=99	=99	=99
1.D	[0F	0A	1f
.	.	.	[1d
2C/	.	.	.
=100	=100	=100	=100
2BB-/	1F]	[0B-	0d]
2AA/	.	.	.
1GG	[1G	.	.
=101	=101	=101	=101
1.BB-	2G/]	0B-]	1d
.	4F/	.	.
.	4E/	.	.
.	1D	.	[1f
4AA/	.	.	.
4GG/	.	.	.
=102	=102	=102	=102
0FF	1.F	[0A	2f/]
.	.	.	4e/
.	.	.	4d/
.	.	.	[1c
.	4E/	.	.
.	4D/	.	.
=103	=103	=103	=103
1r	1C	0A]	2c/]
.	.	.	2B-/
[1F	1r	.	2A/
.	.	.	2G/
=104	=104	=104	=104
2F\]	1A	0r	1F
2E\	.	.	.
2D\	[1B-	.	1r
2C/	.	.	.
=105	=105	=105	=105
1BB-	2B-\]	0r	1.f
.	4A/	.	.
.	4G/	.	.
[1D	1F	.	.
.	.	.	2e/
=106	=106	=106	=106
2D\]	1.A	0r	1d
4C/	.	.	.
4BB-/	.	.	.
1AA	.	.	[1c
.	4G/	.	.
.	4F/	.	.
=107	=107	=107	=107
1r	1E	0r	1c]
[1A	1r	.	1f
=108	=108	=108	=108
2A\]	1c	0r	1e
2G\	.	.	.
2F\	[1d	.	1f
2E\	.	.	.
=109	=109	=109	=109
1D	2d\]	0r	1.a
.	4c\	.	.
.	4B-\	.	.
[1F	1A	.	.
.	.	.	2g/
=110	=110	=110	=110
2F\]	1.c	0r	1f
4E\	.	.	.
4D\	.	.	.
1C	.	.	[1e
.	2B-\	.	.
=111	=111	=111	=111
1r	1.A	[0c	1e]
[1C	.	.	1a
.	4G/	.	.
.	4F/	.	.
=112	=112	=112	=112
2C/]	1E	0c]	1g
2BB-/	.	.	.
2AA/	[1c	.	1a
2GG/	.	.	.
=113	=113	=113	=113
1FF	2c\]	0c	1.cc
.	2B-\	.	.
[1AA	2A/	.	.
.	4G/	.	2b-\
.	4F/	.	.
=114	=114	=114	=114
2AA/]	1E	[0c	1a
4GG/	.	.	.
4FF/	.	.	.
1EE	2r	.	1g
.	[2c\	.	.
=115	=115	=115	=115
1FF	2c\]	0c_	2a/
.	4B-\	.	2.f/
.	4A/	.	.
[1C	1G	.	.
.	.	.	8e/L
.	.	.	8d/J
.	.	.	[2e/
=116	=116	=116	=116
2C/]	2.E/	0c]	2e/]
2D\	.	.	1g
.	4F/	.	.
1E	1G	.	.
.	.	.	4f/
.	.	.	4e/
=117	=117	=117	=117
2D\	2A/	[0d	2f/
1G	2B-\	.	1b-
.	2G/	.	.
2F\	2A/	.	[2a/
=118	=118	=118	=118
2G\	2B-\	0d]	4a/]
.	.	.	4g/
4F\	2G/	.	2.g/
4E\	.	.	.
1D	[1A	.	.
.	.	.	4f/
.	.	.	2f/
=119	=119	=119	=119
2r	1A]	[0c	2e/
1F	.	.	1a
.	2F/	.	.
2E\	2G/	.	[2g/
=120	=120	=120	=120
2F\	2A/	0c]	4g/]
.	.	.	4f/
4E\	2F/	.	2.f/
4D\	.	.	.
1C	[1G	.	.
.	.	.	4e/
.	.	.	2e/
=121	=121	=121	=121
2r	1G]	[0B-	2d/
1E	.	.	1g
.	2E/	.	.
2D\	2F/	.	[2f/
=122	=122	=122	=122
2E\	2G/	0B-]	4f/]
.	.	.	4e/
4D\	2E/	.	2.e/
4C/	.	.	.
1BB-	[1F	.	.
.	.	.	4d/
.	.	.	2d/
=123	=123	=123	=123
2r	1F]	[0A	2c/
1D	.	.	1f
.	2D/	.	.
2C/	2E/	.	[2e/
=124	=124	=124	=124
2D\	2F/	0A]	4e/]
.	.	.	4d/
4C/	2D/	.	2.d/
4BB-/	.	.	.
1AA	[1E	.	.
.	.	.	4c/
.	.	.	2c/
=125	=125	=125	=125
2r	1E]	0r	2B-/
1C	.	.	2c/
.	2C/	.	2A/
2BB-/	2D/	.	2G/
=126	=126	=126	=126
2AA/	2E/	0r	2r
4GG/	2F/	.	1c
4FF/	.	.	.
1GG	2D/	.	.
.	2E/	.	2B-/
=127	=127	=127	=127
1FF	2F/	0r	2A/
.	1.c	.	4G/
.	.	.	4F/
1C	.	.	1G
=128	=128	=128	=128
1D	2A/	0r	1F
.	2F/	.	.
1E	4G/	.	1r
.	4A/	.	.
.	4B-\	.	.
.	4c\	.	.
=129	=129	=129	=129
1F	4A/	0r	1c
.	4G/	.	.
.	1c	.	.
1D	.	.	1d
.	2Bni\	.	.
=130	=130	=130	=130
1C	1c	0r	1e
1r	1F	.	1f
=131	=131	=131	=131
0r	1G	0r	1d
.	1A	.	1c
=132	=132	=132	=132
1r	1B-	1r	2r
.	.	.	1f
1C	1G	[1c	.
.	.	.	2e/
=133	=133	=133	=133
1F	1F	0c]	1f
2E\	1r	.	2g/
[2F\	.	.	[2a/
=134	=134	=134	=134
2F\]	1r	0c	2a/]
2G\	.	.	4g/
.	.	.	4f/
2A\	2r	.	1e
2AA/	[2A/	.	.
=135	=135	=135	=135
1BB-	2A/]	1d	0r
.	2G/	.	.
1AA	2A/	1c	.
.	[2c\	.	.
=136	=136	=136	=136
0r	4c\]	1A	0r
.	4B-\	.	.
.	1A	.	.
.	.	1B-	.
.	2G/	.	.
=137	=137	=137	=137
0r	1A	1A	2r
.	.	.	1a
.	[1c	1r	.
.	.	.	2g/
=138	=138	=138	=138
0r	2c\]	0r	2a/
.	4B-\	.	2.cc\
.	4A/	.	.
.	1c	.	.
.	.	.	4b-\
.	.	.	[2a/
=139	=139	=139	=139
0r	1B-	0r	2a/]
.	.	.	2g/
.	1A	.	2a/
.	.	.	[2A/
=140	=140	=140	=140
[0C	2r	0r	2A/]
.	2.c\	.	2G/
.	.	.	2A/
.	4B-\	.	.
.	2A/	.	[2c/
=141	=141	=141	=141
1C]	2G/	0r	4c/]
.	.	.	4B-/
.	2A/	.	1A
[1C	2E/	.	.
.	[2c\	.	2G/
=142	=142	=142	=142
1C]	1c]	0r	2A/
.	.	.	2e/
1D	2A/	.	2.f/
.	[2B-\	.	.
.	.	.	4g/
=143	=143	=143	=143
1C	4B-\]	0r	1e
.	4A/	.	.
.	2.c\	.	.
1AA	.	.	2r
.	4B-\	.	.
.	[2A/	.	2c/
=144	=144	=144	=144
1BB-	2A/]	0r	2.d/
.	2G/	.	.
.	.	.	4e/
1AA	2A/	.	2c/
.	[2c\	.	2G/
=145	=145	=145	=145
1FF	2c\]	[0c	2A/
.	4B-\	.	1F
.	4A/	.	.
1C	1G	.	.
.	.	.	2E/
=146	=146	=146	=146
2r	2r	0c]	2F/
2FF/	2F/	.	2.f/
2.C/	[1G	.	.
.	.	.	4e/
.	.	.	[2g/
4D\	.	.	.
=147	=147	=147	=147
1E	1G]	1B-	2g/]
.	.	.	2f/
1F	[1c	1A	[1f
=148	=148	=148	=148
0C	0c]	0G	2f/]
.	.	.	4e/
.	.	.	4d/
.	.	.	1e
=149	=149	=149	=149
0D	2.A/	1F	2r
.	.	.	1a
.	4G/	.	.
.	2.F/	2r	.
.	.	2F/	[2f/
.	4E/	.	.
=150	=150	=150	=150
1BB-	1D	1G	2f/]
.	.	.	1d
1GG	[1d	1B-	.
.	.	.	[2g/
=151	=151	=151	=151
0D	1d]	0A	2g/]
.	.	.	4f/
.	.	.	4e/
.	2.d\	.	1f
.	4c\	.	.
=152	=152	=152	=152
1.E	2.B-\	1G	2r
.	.	.	1.g
.	4A/	.	.
.	1G	[1c	.
4D\	.	.	.
4C/	.	.	.
=153	=153	=153	=153
1F	2F/	2c\]	1a
.	2c\	4B-\	.
.	.	4A/	.
1G	2B-\	1B-	[1g
.	[2G/	.	.
=154	=154	=154	=154
1C	2G/]	1c	2g/]
.	1c	.	2f/
1D	.	1F	[1f
.	2B-\	.	.
=155	=155	=155	=155
0C	0c	0G	2f/]
.	.	.	4e/
.	.	.	4d/
.	.	.	1e
=156	=156	=156	=156
*M3/1	*M3/1	*M3/1	*M3/1
*met(C|3)	*met(C|3)	*met(C|3)	*met(C|3)
0.FF	0.A	0.F	0f
.	.	.	1r
=157	=157	=157	=157
0.r	1r	0.r	1c
.	1F	.	1c
.	1F	.	1c
=158	=158	=158	=158
0.r	1F	0.r	0d
.	0G	.	.
.	.	.	1d
=159	=159	=159	=159
1C	1G	0.r	1e
1C	1A	.	1e
1C	1G	.	1e
=160	=160	=160	=160
0D	1B-	1F	1d
.	1A	1F	1.f
1D	1F	1F	.
.	.	.	2e/
=161	=161	=161	=161
1E	0.r	0G	1c
1E	.	.	1r
1E	.	1G	1g
=162	=162	=162	=162
1D	0.r	1A	1f
1.F	.	1A	1.a
.	.	1A	.
2E\	.	.	2g/
=163	=163	=163	=163
1C	1r	0A	1e
0D	1r	.	1.f
.	1F	1A	.
.	.	.	2e/
=164	=164	=164	=164
1C	0.G	0c	0e
1C	.	.	.
1C	.	1c	1e
=165	=165	=165	=165
0F	1A	1c	0f
.	1A	1c	.
1C	1G	1c	1e
=166	=166	=166	=166
1F	1A	0c	1f
1E	1G	.	1.g
1D	1A	1d	.
.	.	.	2f/
=167	=167	=167	=167
1BB-	1B-	1d	1f
0C	0G	0c	0e
=168	=168	=168	=168
1F	1A	1c	1a
1F	1A	1c	1a
1G	1d	1B-	1g
=169	=169	=169	=169
0D	0.d	0A	0f
1D	.	1A	1f
=170	=170	=170	=170
1F	[0.c	1A	1f
1F	.	1A	1f
1F	.	1A	1f
=171	=171	=171	=171
0C	0.c]	0G	0e
1C	.	1G	1e
=172	=172	=172	=172
0BB-	0F	0B-	0d
1BB-	1F	1B-	1d
=173	=173	=173	=173
1BB-	1F	1B-	1d
0GG	0G	0B-	0d
=174	=174	=174	=174
0D	0.A	0F	0d
1F	.	1A	1c
=175	=175	=175	=175
1F	1c	1A	1.f
0C	1.c	0G	.
.	.	.	2e/
.	.	.	2e/
.	4B-\	.	2d/
.	4A/	.	.
=176	=176	=176	=176
0.FF	0A	0.F	1f
.	.	.	1r
.	1r	.	1f
=177	=177	=177	=177
0.r	1c	0.r	0g
.	1c	.	.
.	1c	.	1g
=178	=178	=178	=178
0.r	1.F	1r	0.a
.	.	1r	.
.	2E/	.	.
.	1D	1F	.
=179	=179	=179	=179
1C	1C	0G	0.r
1C	1r	.	.
1C	1r	1G	.
=180	=180	=180	=180
0.FF	0.r	0.A	1f
.	.	.	1f
.	.	.	1f
=181	=181	=181	=181
0.r	1c	0.r	1g
.	1c	.	1.g
.	1c	.	.
.	.	.	4f/
.	.	.	4g/
=182	=182	=182	=182
0.r	1A	1F	0a
.	0c	1F	.
.	.	1F	1f
=183	=183	=183	=183
1C	1C	1G	1e
1C	1r	1.G	0g
1C	1E	.	.
.	.	4F/	.
.	.	4G/	.
=184	=184	=184	=184
1AA	1.F	1A	1c
0C	.	1r	1r
.	2E/	.	.
.	2E/	1G	1c
.	2D/	.	.
=185	=185	=185	=185
0FF	0F	[0.A	0c
1AA	1E	.	1c
=186	=186	=186	=186
1AA	1F	1A]	1c
0GG	0G	0B-	0d
=187	=187	=187	=187
0.D	1F	[0.A	0d
.	1r	.	.
.	1F	.	1d
=188	=188	=188	=188
[0.F	1F	0A]	1c
.	1.c	.	1.f
.	.	1A	.
.	2B-\	.	2e/
=189	=189	=189	=189
0.F]	0A	0c	2f/
.	.	.	2g/
.	.	.	1.a
.	1A	1c	.
.	.	.	2g/
=190	=190	=190	=190
0.C	0.G	0c	0e
.	.	1c	1e
=191	=191	=191	=191
1.C	0c	0G	1.e
4BB-/	.	.	2f/
4AA/	.	.	.
1GG	1B-	1G	2g/
.	.	.	4f/
.	.	.	4g/
=192	=192	=192	=192
1FF	1A	0c	1a
1C	0c	.	1.g
[1D	.	1A	.
.	.	.	2f/
=193	=193	=193	=193
1D]	1B-	1F	1.f
0C	0c	0G	.
.	.	.	4e/
.	.	.	4d/
.	.	.	1e
=194	=194	=194	=194
[0.FFl	1.A	[0.Fl	[0.fl
.	2B-\	.	.
.	1c	.	.
=195	=195	=195	=195
0.FF_	1C	0.F_	0.f_
.	0D	.	.
=196	=196	=196	=196
0.FF]	0.Cl	0.F]	0.f]
==	==	==	==
*-	*-	*-	*-
!!!RDF**kern: l=long note in original notation
!!!RDF**kern: i=editorial accidental
!!!RDF**kern: V=start of tuplet marker
!!!RDF**kern: Z=end of tuplet marker
!!!ENC:	Jesse Rodin; Victoria Chang 2012/02/02
!!!END:	2012/02/02/
!!!EED:	Jesse Rodin
!!!EEV:	2012/06/24/
!!attribution-level@Jos: 4 (questionable)
!!!ONB:	Translated from MusicXML and edited on 2012/06/24/ by Craig Sapp
!!muse2ps: C^@{COA}?\n@{SCT}^i2I150v85,85,85,150Q16
